Newaita-dark/.DP/22/network-vpn-acquiring.svg

<?xml version="1.0" encoding="UTF-8"?>
<svg xmlns="http://www.w3.org/2000/svg" xmlns:xlink="http://www.w3.org/1999/xlink" width="22pt" height="22pt" viewBox="0 0 22 22" version="1.1">
<g id="surface1">
<path style=" stroke:none;fill-rule:nonzero;fill:rgb(74.117649%,74.117649%,74.117649%);fill-opacity:1;" d="M 5.003906 7.902344 C 3.238281 7.902344 1.820312 9.324219 1.820312 11.085938 C 1.820312 12.851562 3.238281 14.269531 5.003906 14.269531 C 5.464844 14.269531 5.898438 14.171875 6.292969 14 C 5.765625 13.15625 5.457031 12.160156 5.457031 11.085938 C 5.457031 10.015625 5.765625 9.015625 6.292969 8.175781 C 5.898438 8 5.464844 7.902344 5.003906 7.902344 Z M 16.828125 7.902344 C 16.367188 7.902344 15.929688 8 15.535156 8.175781 C 16.066406 9.015625 16.371094 10.015625 16.371094 11.085938 C 16.371094 12.160156 16.066406 13.15625 15.535156 14 C 15.929688 14.171875 16.367188 14.269531 16.828125 14.269531 C 18.589844 14.269531 20.011719 12.851562 20.011719 11.085938 C 20.011719 9.324219 18.589844 7.902344 16.828125 7.902344 Z M 16.828125 7.902344 "/>
<path style=" stroke:none;fill-rule:nonzero;fill:rgb(74.117649%,74.117649%,74.117649%);fill-opacity:1;" d="M 10.914062 6.992188 C 13.175781 6.992188 15.007812 8.828125 15.007812 11.085938 C 15.007812 13.347656 13.175781 15.179688 10.914062 15.179688 C 8.65625 15.179688 6.820312 13.347656 6.820312 11.085938 C 6.820312 8.828125 8.65625 6.992188 10.914062 6.992188 Z M 10.914062 6.992188 "/>
</g>
</svg>

<svg xmlns="http://www.w3.org/2000/svg" width="22pt" height="22pt" viewBox="0 0 22 22"><g fill="#bdbdbd"><path d="M5.004 7.902a3.177 3.177 0 0 0-3.184 3.184 3.174 3.174 0 0 0 3.184 3.184c.46 0 .894-.098 1.289-.27a5.475 5.475 0 0 1-.836-2.914c0-1.07.309-2.07.836-2.91a3.15 3.15 0 0 0-1.29-.274zm11.824 0c-.46 0-.898.098-1.293.274.531.84.836 1.84.836 2.91 0 1.074-.305 2.07-.836 2.914.395.172.832.27 1.293.27a3.177 3.177 0 0 0 3.184-3.184 3.18 3.18 0 0 0-3.184-3.184zm0 0M10.914 6.992a4.093 4.093 0 1 1-4.094 4.094 4.098 4.098 0 0 1 4.094-4.094zm0 0"/></g></svg>
